images/icon-books.svg

<svg height="21" viewBox="0 0 20 21" width="20" xmlns="http://www.w3.org/2000/svg"><g fill="none" fill-rule="evenodd"><path d="m-2-2h24v24h-24z"/><g fill-rule="nonzero" transform=""><path d="m18 0h-16c-1.103 0-2 .898-2 2v19h2v-2h16v2h2v-19c0-1.102-.897-2-2-2zm0 2v7h-8v-5h-3v5h-1v-5h-3v5h-1v-7zm-5 10v5h-1v-5h-3v5h-1v-5h-3v5h-3v-6h16v6h-2v-5z" fill="#69c7f1"/><path d="m10.799 4.372h4.999v3.001h-4.999z" fill="#b973ff" transform="matrix(.35981769 .93302263 -.93302263 .35981769 13.991853 -8.648184)"/></g></g></svg>

<svg height="21" viewBox="0 0 20 21" width="20" xmlns="http://www.w3.org/2000/svg"><g fill="none" fill-rule="evenodd"><path d="M-2-2h24v24H-2z"/><g fill-rule="nonzero"><path d="M18 0H2C.897 0 0 .898 0 2v19h2v-2h16v2h2V2c0-1.102-.897-2-2-2zm0 2v7h-8V4H7v5H6V4H3v5H2V2zm-5 10v5h-1v-5H9v5H8v-5H5v5H2v-6h16v6h-2v-5z" fill="#69c7f1"/><path d="M13.798 3l1.8 4.665-2.8 1.08-1.8-4.665z" fill="#b973ff"/></g></g></svg>
